!!!COM: Ce/cile Chaminade
!!!CNT: Francais
!!!TXO: Francais
!!!OTL: "Madrigal"
!!!LYR: van Ormelingen, Georges
!!!ENC: Amanda Harris
!!!YOR: Album of Songs, Volume 1
!!!YOR: Da Capo Press
!!!ODT: 1886/
!!NB: Vocal melody and text encoded
**kern	**silbe
*clefG2	*
*k[]	*
*M2/4	*
*MM[72]	*
=9	=9
4r	.
{8g	{Tes
16g#	doux
16g#	bai-
=10	=10
8a	-sers
24f	sont
24gn	|
24f	|
8e	des
8d	oi-
=11	=11
4cc	-seaux
16b	Qui
16dd	vol-
16cc	-ti-
16a	-gent
=12	=12
8g	fous,
16g#	sur
16b	mes
8a	le\-
8f	|
=13	=13
4e}	-vres,}
{8g	{Ils
8a	y
=14	=14
8b	ver-
16a	-sent
16g	l'ou-
8b	-vli
16a	des
16g	|
=15	=15
8b	fie\-
8b	-vres.
8dd	Tes
16dd#	doux
16dd#	bai-
=16	=16
8ee	-sers
24cc	sont
24ddn	|
24cc	|
8b	des
8a	oi-
=17	=17
4g}	-seaux,}
{8g	{Aus-
16a	-si
16a	le/-
=18	=18
8b	-gers
16cc	que
16a	|
8b	des
16cc	ro-
16a	|
=19	=19
4b	-seaux,
8g	Fou-
8a	-le/s
=20	=20
8b	par
16cc	les
16a	pieds
8b	blancs
16cc	des
16a	|
=21	=21
2ee	che\-
=22	=22
4e}	-vres.}
{8g	{Tes
16g#	doux
16g#	bai-
=23	=23
8a	-sers
24f	sont
24gn	|
24f	|
8e	des
8d	oi-
=24	=24
4cc	-seaux
16b	Qui
16dd	vol
16cc	ti-
16a	-gent
=25	=25
8g	fous,
16c	sur
16a	mes
4g	le\
=26	=26
4c}	-vres.}
4r	.
=34	=34
4r	.
{16g	{Com-
16g	-me
16g#	de
16g#	fri-
=35	=35
8a	-vo-
24f	|
24gn	|
24f	|
8e	-les
8d	oi-
=36	=36
4cc	-seaux
16b	Aux
16dd	ai-
16cc	-les
16a	d'ar-
=37	=37
8g	-gent,
16g#	aux
16b	bees
8a	mie\-
8f	|
=38	=38
4e}	-vres,}
{8g	{Ain-
16a	-si
16a	que
=39	=39
8b	sur
16a	des
16g	|
8b	ar-
16a	-bris-
16g	|
=40	=40
4b	-seaux
8dd	Ils
16dd#	vien-
16dd#	-nent
=41	=41
8ee	chan-
24cc	-ter
24ddn	|
24cc	|
8b	sur
8a	mes
=42	=42
8g	le\-
8g}	-vres,}
{16g	{Com-
16g	-me
8a	sculp-
=43	=43
8b	-te/s
16cc	par
16a	|
8b	des
16cc	or-
16a	|
=44	=44
4b	-febres
8g	A-
8a	-vec
=45	=45
8b	de
16cc	ma-
16a	|
8b	-gi-
16cc	-ques
16a	ci-
=46	=46
[2ee	-seaux.
=47	=47
4ee]}	|}
{8g	{Tes
16g#	bai-
16g#	-sers
=48	=48
8a	di-
24f	-sent,
24gn	|
24f	|
8e	doux
8d	oi-
=49	=49
4cc	-seaux,
16b	Leur
16dd	Chan-
16cc	-son
16a	d'a-
=50	=50
8g	-mour
16c	sur
16a	mes
4g	le\-
=51	=51
4c}	-vres.}
4r	.
*-	*-
